X:248
T: ES HUETT SICH EIN MAEDEL DIE LAEMMELEIN
N: E0126A
O: Europa, Mitteleuropa, Deutschland, Schlesien
R: erzaehlendes Volks - Lied, Schalk -, Schelmen - Lied, betrogene Liebe
M: 6/8
L: 1/16
K: F
C2 | F2F2F2A2F2A2 | c4c2A4c2 | B4G2A4
C2 | F2F2F2A2F2A2 | c4c2A4c2 | B4G2A4
A2 | B2B2B2G2G2G2 | c4c2A4
A2 | B2B2B2G2G2G2 | c4c2A4
c2 | f3cc2A2F2c2 | B4G2A4

@@@ Tune index: 3898
